images/direction-5.svg

<svg width="149" height="101" viewBox="0 0 149 101" fill="none" xmlns="http://www.w3.org/2000/svg">
<path opacity="0.5" d="M28 54H121V65.5L116.5 69H32.5L28 65.5V54Z" fill="#2A94E2"/>
<path d="M141.409 43.6462H127.209C126.649 43.6462 126.121 43.7177 125.614 43.8228L124.354 14.1304C124.051 7.01311 117.933 1 110.994 1H75.2577H73.7423H37.9682C31.0304 1 24.911 7.01311 24.6064 14.1304L23.347 43.8198C22.8394 43.7162 22.312 43.6462 21.7512 43.6462H7.54984C3.69298 43.6462 1 46.2095 1 49.8786V62.3282C1 65.6683 1 71.1362 1 74.4778V83.2827C1 86.8665 3.68995 90.8615 7.54984 90.8615H14.6392V97.7154V98.4769V99.2385C14.6392 99.6588 14.9786 100 15.3969 100H19.1856H19.9433C20.3616 100 20.701 99.6588 20.701 99.2385V90.8615H34.2417H114.719H128.299V99.2385V100H129.057H132.845H133.603C134.021 100 134.361 99.6588 134.361 99.2385V90.8615H141.409C145.293 90.8615 148 86.8665 148 83.2812V74.4763C148 71.1362 148 65.6683 148 62.3267V49.8771C148 46.2095 145.29 43.6462 141.409 43.6462ZM75.2577 2.52308H110.994C117.147 2.52308 122.571 7.86908 122.839 14.1959L124.118 44.3346C122.037 45.3231 120.722 47.3198 120.722 49.8786V53.5614C120.088 53.0801 119.309 52.7846 118.458 52.7846H75.2577V2.52308ZM75.2577 54.3077H118.458C119.706 54.3077 120.722 55.3282 120.722 56.5832V62.3267C120.722 65.2525 118 68.0154 115.122 68.0154H75.2577V54.3077ZM73.7423 68.0154H33.8401C30.9804 68.0154 28.2784 65.2525 28.2784 62.3282V56.5847C28.2784 55.3282 29.2937 54.3077 30.5425 54.3077H73.7423V68.0154ZM26.1203 14.1959C26.3916 7.86908 31.817 2.52308 37.9682 2.52308H73.7423V52.7846H30.5425C29.6892 52.7846 28.9118 53.0801 28.2784 53.5614V49.8786C28.2784 47.3107 26.9463 45.3094 24.8413 44.3254L26.1203 14.1959ZM19.1856 98.4769H16.1546V90.8615H19.1856V98.4769ZM132.845 98.4769H129.814V90.8615H132.845V98.4769ZM146.485 83.2812C146.485 86.14 144.314 89.3385 141.409 89.3385H134.361H132.845H129.814H128.299H127.209C123.886 89.3385 118.445 89.3385 115.12 89.3385H114.716H34.2417H33.8401C30.5167 89.3385 25.0762 89.3385 21.7512 89.3385H19.1856H16.1546H14.6392H7.54984C4.58256 89.3385 2.51546 86.1461 2.51546 83.2812V49.8786C2.51546 47.0624 4.53861 45.1692 7.54984 45.1692H21.7512C24.7488 45.1692 26.7629 47.0624 26.7629 49.8786V56.5832V62.3267C26.7629 66.1009 30.1363 69.5385 33.8401 69.5385H115.122C118.846 69.5385 122.237 66.1009 122.237 62.3282V56.5847V49.8801C122.237 47.0624 124.234 45.1692 127.209 45.1692H141.409C144.445 45.1692 146.485 47.0624 146.485 49.8786V83.2812Z" fill="black" stroke="black" stroke-width="0.5"/>
<path d="M50.5 29C51.8807 29 53 28.1046 53 27C53 25.8954 51.8807 25 50.5 25C49.1193 25 48 25.8954 48 27C48 28.1046 49.1193 29 50.5 29Z" fill="black" stroke="black" stroke-width="0.5"/>
<path d="M99 29C100.105 29 101 28.1046 101 27C101 25.8954 100.105 25 99 25C97.8954 25 97 25.8954 97 27C97 28.1046 97.8954 29 99 29Z" fill="black" stroke="black" stroke-width="0.5"/>
</svg>

<svg width="149" height="101" fill="none" xmlns="http://www.w3.org/2000/svg"><path opacity=".5" d="M28 54h93v11.5l-4.5 3.5h-84L28 65.5V54z" fill="#2A94E2"/><path d="M141.409 43.646h-14.2a7.8 7.8 0 00-1.595.177l-1.26-29.693C124.051 7.013 117.933 1 110.994 1H37.968C31.03 1 24.911 7.013 24.606 14.13l-1.259 29.69a7.916 7.916 0 00-1.596-.174H7.55C3.693 43.646 1 46.21 1 49.88v33.403c0 3.584 2.69 7.579 6.55 7.579h7.09v8.376c0 .42.339.762.757.762h4.546a.76.76 0 00.758-.761v-8.377h107.598V100h5.304a.76.76 0 00.758-.761v-8.377h7.048c3.884 0 6.591-3.995 6.591-7.58V49.877c0-3.668-2.71-6.23-6.591-6.23zM75.258 2.523h35.736c6.153 0 11.577 5.346 11.845 11.673l1.279 30.139c-2.081.988-3.396 2.985-3.396 5.544v3.682a3.73 3.73 0 00-2.264-.776h-43.2V2.523zm0 51.785h43.2a2.272 2.272 0 012.264 2.275v5.744c0 2.925-2.722 5.688-5.6 5.688H75.258V54.308zm-1.516 13.707H33.84c-2.86 0-5.562-2.763-5.562-5.687v-5.743a2.272 2.272 0 012.265-2.277h43.2v13.707zM26.12 14.195c.272-6.326 5.697-11.672 11.848-11.672h35.774v50.262h-43.2c-.853 0-1.63.295-2.264.776V49.88c0-2.568-1.332-4.57-3.437-5.554l1.28-30.13zm-6.934 84.282h-3.031v-7.615h3.03v7.615zm113.659 0h-3.031v-7.615h3.031v7.615zm13.64-15.196c0 2.859-2.171 6.057-5.076 6.057H7.549c-2.966 0-5.034-3.192-5.034-6.057V49.88c0-2.817 2.024-4.71 5.035-4.71h14.2c2.998 0 5.012 1.893 5.012 4.71v12.448c0 3.774 3.373 7.212 7.077 7.212h81.282c3.724 0 7.115-3.438 7.115-7.21V49.88c0-2.818 1.997-4.71 4.972-4.71h14.2c3.036 0 5.076 1.892 5.076 4.709V83.28z" fill="#000" stroke="#000" stroke-width=".5"/><path d="M50.5 29c1.38 0 2.5-.895 2.5-2s-1.12-2-2.5-2-2.5.895-2.5 2 1.12 2 2.5 2zM99 29a2 2 0 100-4 2 2 0 000 4z" fill="#000" stroke="#000" stroke-width=".5"/></svg>
